!!!!SEGMENT: pl-cz--ii-116--004_jeric--partita-b-minuetto.krn
!!!cenid: 18xx:2472
!!!COM: Jeric
!!!COM-rismID: pe30098283
!!!CDT: ~1800-~1899
!!!CNT:
!!!OPR: Partita B
!!!OTL: Minuetto
!!!OMV: 004
!!!PDT: 1801
!!!AGN: Secular; Partita
!!!SMS-siglum: PL-CZ
!!!SMS-shelfmark: II-116
!!!SMS-shelfwork: 001-004 M
!!!SMS-variant:
!!!SMS-altvar:
!!!NIFC-rismSourceID: 300000527
!!!NIFC-rismChildID: 300000527
!!!NIFC-islandoraID: pl-cz:3221
!!!URL-pdf-islandora: https://repozytorium.nifc.pl/islandora/object/pl-cz%3A3221/datastream/PDF/view
!!!URL-scan: https://polish.musicsources.pl/pl/lokalizacje/galeria/rekopisy/691 @EN{Scan on Polish Music Sources Website} @PL{Skany w portalu Dziedzictwo Muzyki Polskiej w otwartym dostępie}
!!!IIIF:
!!!ONB-nifc: UWAGA: części Partity: 1. Allegro, 2. Menuetto, 3. Andante, 4. Menuetto, 5. Rondo. W Particie 2 Menuety (002 i 004). Kontynuacja partii Fagotu na skanie 0008, str. 8
!!!AIN: 2 clars 2 empty 1 fagot
!!!key:
**kern	**dynam	**kern	**dynam	**kern	**dynam	**kern	**dynam	**kern	**dynam
*part5	*part5	*part4	*part4	*part3	*part3	*part2	*part2	*part1	*part1
*staff5	*	*staff4	*	*staff3	*	*staff2	*	*staff1	*
*Iempty	*	*Iempty	*	*Ifagot	*	*Iclars	*	*Iclars	*
*I"Cornu Secundo in B.	*	*I"Cornu Primu in B.	*	*I"Fagotto.	*	*I"Clarinetto Secundo. in B.	*	*I"Clarinetto Primo in B.	*
*I'cor 2 in B	*	*I'cor 1 in B	*	*I'fag	*	*I'cl 2 in B	*	*I'cl 1 in B	*
*>[A,A,B,B,C,C,D,D,A,A,B,B]	*	*>[A,A,B,B,C,C,D,D,A,A,B,B]	*	*>[A,A,B,B,C,C,D,D,A,A,B,B]	*	*>[A,A,B,B,C,C,D,D,A,A,B,B]	*	*>[A,A,B,B,C,C,D,D,A,A,B,B]	*
*clefG2	*	*clefG2	*	*clefF4	*	*clefG2	*	*clefG2	*
*ITrd1c2	*	*ITrd1c2	*	*	*	*ITrd1c2	*	*ITrd1c2	*
*k[b-e-]	*	*k[b-e-]	*	*k[b-e-]	*	*k[b-e-]	*	*k[b-e-]	*
*B-:	*	*B-:	*	*B-:	*	*B-:	*	*B-:	*
*M3/4	*	*M3/4	*	*M3/4	*	*M3/4	*	*M3/4	*
=1	=1	=1	=1	=1	=1	=1	=1	=1	=1
*>A	*	*>A	*	*>A	*	*>A	*	*>A	*
*all\right	*	*all\right	*	*all\right	*	*all\right	*	*all\right	*
!	!	!	!	!LO:TX:a:i:t=Menuetto	!	!	!	!LO:TX:a:t=Minuetto	!
!LO:TX:a:i:t=Menuetto.	!	!LO:TX:a:i:t=Menuetto	!	!	!	!LO:TX:a:i:t=Minuetto.	!LO:DY:a:rj	!	!LO:DY:a:rj
!	!LO:DY:a:rj	!	!LO:DY:a:rj	!	!LO:DY:rj	!	!	!	!
4d/	p	4b-\	p	4BBB-/	p	8D/L	p	2f/	p
.	.	.	.	.	.	8F/	.	.	.
4d/	.	4b-\	.	4BB-/	.	8D/	.	.	.
.	.	.	.	.	.	8F/	.	.	.
4r	.	4r	.	4r	.	8D/	.	4dd\	.
.	.	.	.	.	.	8F/J	.	.	.
=2	=2	=2	=2	=2	=2	=2	=2	=2	=2
*	*	*	*	*	*	*rep	*	*2\right	*
4d/	.	4b-\	.	4BBB-/	.	8D/L	.	2b-\	.
.	.	.	.	.	.	8F/	.	.	.
4d/	.	4b-\	.	4BB-/	.	8D/	.	.	.
.	.	.	.	.	.	8F/	.	.	.
4r	.	4r	.	4r	.	8D/	.	4ff\	.
.	.	.	.	.	.	8F/J	.	.	.
*	*	*	*	*	*	*Xrep	*	*	*
=3	=3	=3	=3	=3	=3	=3	=3	=3	=3
.	.	.	.	.	.	.	.	8qqff/	.
4r	.	4r	.	4r	.	4r	.	4ee-\	.
4f/|	.	(4cc\	.	4F\	.	4E-/	.	8ee-\L	.
.	.	.	.	.	.	.	.	8cc\J	.
!|	!	!	!	!	!	!	!	!	!
4b-\|	.	4dd\)	.	4BB-/	.	4D/	.	4dd\	.
=4	=4	=4	=4	=4	=4	=4	=4	=4	=4
.	.	.	.	.	.	.	.	8qqff/	.
4r	.	4r	.	4r	.	4r	.	4ee-\	.
(4f\	.	(4cc\	.	4F\	.	4E-/	.	8ee-\L	.
.	.	.	.	.	.	.	.	8cc\J	.
4b-\)	.	4dd\)	.	4BB-/	.	4D/	.	4dd\	.
=5	=5	=5	=5	=5	=5	=5	=5	=5	=5
4r	.	4r	.	4r	.	4r	.	8ff\L	.
.	.	.	.	.	.	.	.	[8ee-\	.
4f\|	.	4cc\|	.	4F\	.	4A/	.	(8ee-\]	.
.	.	.	.	.	.	.	.	8cc\)	.
4b-\|	.	4dd\|	.	4BB-/	.	4B-/	.	(8dd\	.
.	.	.	.	.	.	.	.	8b-\J)	.
=6	=6	=6	=6	=6	=6	=6	=6	=6	=6
4f/	.	4cc\	.	4FF/	.	8A/L	.	8cc\L	.
.	.	.	.	.	.	8G/	.	8b-\	.
4r	.	4r	.	4r	.	8A/	.	8cc\	.
.	.	.	.	.	.	8B-/J	.	8dd\J	.
4r	.	4r	.	4r	.	4A/	.	4cc\	.
=7	=7	=7	=7	=7	=7	=7	=7	=7	=7
!	!LO:DY:t=f~	!	!LO:DY:rj:t=f~	!	!LO:DY:rj:t=f~	!	!	!	!LO:DY:rj:t=f&colon;
4r	f	4r	f	4BBB-/	f	8D/L	.	2f/	f
.	.	.	.	.	.	8F/	.	.	.
8d/L	.	8b-\L	.	4BB-/	.	8D/	.	.	.
8d/J	.	8b-\J	.	.	.	8F/	.	.	.
4d/	.	4b-\	.	4BB-/	.	8D/	.	4dd\	.
.	.	.	.	.	.	8F/J	.	.	.
=8	=8	=8	=8	=8	=8	=8	=8	=8	=8
*	*	*	*	*	*	*rep	*	*	*
4r	.	4r	.	4BBB-/	.	8D/L	.	2b-\	.
.	.	.	.	.	.	8F/	.	.	.
8d/L	.	8b-\L	.	4BB-/	.	8D/	.	.	.
8d/J	.	8b-\J	.	.	.	8F/	.	.	.
4d/	.	4b-\	.	4BB-/	.	8D/	.	4ff\	.
.	.	.	.	.	.	8F/J	.	.	.
*	*	*	*	*	*	*Xrep	*	*	*
!	!	!	!	!	!	!LO:LB:g=original	!	!LO:LB:g=original	!
=9	=9	=9	=9	=9	=9	=9	=9	=9	=9
*	*	*2\right	*	*	*	*	*	*	*
.	.	.	.	.	.	.	.	8qqff/	.
2f/	.	(2cc\	.	4FF/	.	2E-/	.	4ee-\	.
.	.	.	.	4F\	.	.	.	8ee-\L	.
.	.	.	.	.	.	.	.	8cc\J	.
4b-\	.	4dd\)	.	4BB-/	.	4D/	.	4dd\	.
!LO:LB:g=original	!	!LO:LB:g=original	!	!LO:LB:g=original	!	!	!	!	!
=10	=10	=10	=10	=10	=10	=10	=10	=10	=10
.	.	.	.	.	.	.	.	8qqff/	.
2f/	.	(2cc\	.	4FF/	.	2E-/	.	4ee-\	.
.	.	.	.	4F\	.	.	.	8ee-\L	.
.	.	.	.	.	.	.	.	8cc\J	.
4b-\	.	4dd\)	.	4BB-/	.	4D/	.	4dd\	.
=11	=11	=11	=11	=11	=11	=11	=11	=11	=11
.	.	.	.	.	.	.	.	8qqff/	.
4r	.	2r	.	4EE-/	.	2G/	.	4ee-\	.
4r	.	.	.	4E-\	.	.	.	8ee-\L	.
.	.	.	.	.	.	.	.	(8cc\	.
4f/	.	4cc\	.	4F\	.	4F/	.	8cc\	.
.	.	.	.	.	.	.	.	8a\J)	.
=12	=12	=12	=12	=12	=12	=12	=12	=12	=12
4d/	.	4b-\	.	4BB-/	.	4D/	.	4b-\	.
4r	.	4r	.	4BBB-/	.	4r	.	4r	.
4r	.	4r	.	4r	.	4r	.	4r	.
=13:|!|:	=13:|!|:	=13:|!|:	=13:|!|:	=13:|!|:	=13:|!|:	=13:|!|:	=13:|!|:	=13:|!|:	=13:|!|:
*>B	*	*>B	*	*>B	*	*>B	*	*>B	*
!	!LO:DY:rj	!	!LO:DY:rj	!	!LO:DY:rj	!	!LO:DY:rj	!	!
2f/	p	(2cc\	p	4FF/	p	4A/	p	2cc\	p
.	.	.	.	4F\	.	4e-/	.	.	.
4b-\	.	4dd\)	.	4BB-/	.	4d/	.	8dd\L	.
.	.	.	.	.	.	.	.	8b-\J	.
=14	=14	=14	=14	=14	=14	=14	=14	=14	=14
2f/	.	(2cc\	.	4FF/	.	4A/	.	4cc\	.
.	.	.	.	4F\	.	4e-/	.	4cc\	.
4b-\	.	4dd\)	.	4BB-/	.	4d/	.	8dd\L	.
.	.	.	.	.	.	.	.	8b-\J	.
=15	=15	=15	=15	=15	=15	=15	=15	=15	=15
4f/	.	4cc\	.	4F\	.	(8a\L	.	(8cc\L	.
.	.	.	.	.	.	8b-\	.	8dd\	.
4r	.	4r	.	4A\	.	8dd\	.	8ff\	.
.	.	.	.	.	.	8cc\J)	.	8ee-\	.
8f/L	.	8cc\L	.	4B-\	.	8cc\L	.	8ee-\)	.
8b-/J	.	8dd\J	.	.	.	8b-\J	.	8dd\J	.
=16	=16	=16	=16	=16	=16	=16	=16	=16	=16
*2\right	*	*	*	*	*	*2\right	*	*	*
2b-\	.	2dd\	.	4F\	.	(2b-\	.	(2dd\	.
.	.	.	.	4C/	.	.	.	.	.
4f/	.	4cc\	.	4FF/	.	4a\)	.	4cc\)	.
=17	=17	=17	=17	=17	=17	=17	=17	=17	=17
!	!LO:DY:rj	!	!	!	!LO:DY:rj:t=f~	!	!LO:DY:rj	!	!LO:DY:rj:t=f~
2f/	f	(2cc\	f	4FF/	f	8A/L	f	2cc\	f
.	.	.	.	.	.	8c/J	.	.	.
.	.	.	.	4F\	.	4e-/	.	.	.
4b-\	.	4dd\)	.	4BB-/	.	4d/	.	(8dd\L	.
.	.	.	.	.	.	.	.	8b-\J)	.
!	!	!	!	!	!	!LO:LB:g=original	!	!LO:LB:g=original	!
=18	=18	=18	=18	=18	=18	=18	=18	=18	=18
2f/	.	(2cc\	.	4FF/	.	8A/L	.	4cc\	.
.	.	.	.	.	.	8c/J	.	.	.
.	.	.	.	4F\	.	4e-/	.	4cc\	.
4b-\	.	4dd\)	.	4BB-/	.	4d/	.	8dd\L	.
.	.	.	.	.	.	.	.	8b-\J	.
=19	=19	=19	=19	=19	=19	=19	=19	=19	=19
4f/	.	4cc\	.	4FF/	.	8A/L	.	8cc\L	.
.	.	.	.	.	.	(8B-/	.	8aa\	.
4r	.	4r	.	4F\	.	8c/)	.	8gg\	.
.	.	.	.	.	.	8A/J	.	8ff\J	.
4cc\	.	4cc\	.	4C/	.	8G/L	.	8eeX\L	.
.	.	.	.	.	.	8B-/J	.	8gg\J	.
!LO:LB:g=original	!	!	!	!LO:LB:g=original	!	!	!	!	!
=20	=20	=20	=20	=20	=20	=20	=20	=20	=20
4f/	.	4cc\	.	4F\	.	4A/	.	8ff\L	.
.	.	.	.	.	.	.	.	8ff\	.
4r	.	4r	.	2r	.	4r	.	8ff\	.
.	.	.	.	.	.	.	.	8ff\J	.
4r	.	4r	.	.	.	4r	.	8ff\L	.
.	.	.	.	.	.	.	.	8ff\J	.
!	!	!LO:LB:g=original	!	!	!	!	!	!	!
=21	=21	=21	=21	=21	=21	=21	=21	=21	=21
*	*	*	*	*	*	*tremolo	*	*	*
!	!	!	!	!	!LO:DY:rj:t=p	!	!LO:DY:rj	!	!
2.d/	.	2.b-\	p	4BBB-/	p	8D/L	p	2f/	.
.	.	.	.	.	.	8F/	.	.	.
.	.	.	.	4BB-/	.	8D/	.	.	.
.	.	.	.	.	.	8F/	.	.	.
.	.	.	.	4r	.	8D/	.	4dd\	.
.	.	.	.	.	.	8F/J	.	.	.
=22	=22	=22	=22	=22	=22	=22	=22	=22	=22
*	*	*	*	*	*	*rep	*	*	*
2.d/	.	2.b-\	.	4BBB-/	.	8D/L	.	2b-\	.
.	.	.	.	.	.	8F/	.	.	.
.	.	.	.	4BB-/	.	8D/	.	.	.
.	.	.	.	.	.	8F/	.	.	.
.	.	.	.	4r	.	8D/	.	4ff\	.
.	.	.	.	.	.	8F/J	.	.	.
*	*	*	*	*	*	*Xrep	*	*	*
*	*	*	*	*	*	*Xtremolo	*	*	*
=23	=23	=23	=23	=23	=23	=23	=23	=23	=23
.	.	.	.	.	.	.	.	8qqff/	.
4r	.	4r	.	4r	.	4r	.	4ee-\	.
4f/|>	.	4cc\|	.	4F\	.	4E-/	.	8ee-\L	.
.	.	.	.	.	.	.	.	8cc\J	.
4b-\|	.	4dd\|	.	4BB-/	.	4D/	.	4dd\	.
=24	=24	=24	=24	=24	=24	=24	=24	=24	=24
.	.	.	.	.	.	.	.	8qqff/	.
4r	.	4r	.	4r	.	4r	.	4ee-\	.
(4f/	.	(4cc\	.	4F\	.	4E-/	.	8ee-\L	.
.	.	.	.	.	.	.	.	8cc\J	.
4b-\)	.	4dd\)	.	4BB-/	.	4D/	.	4dd\	.
=25	=25	=25	=25	=25	=25	=25	=25	=25	=25
4r	.	4r	.	4r	.	4r	.	(8ff\L	.
.	.	.	.	.	.	.	.	8ee-\)	.
4f\	.	4cc\|	.	4F\	.	4A/	.	(8ee-\	.
.	.	.	.	.	.	.	.	8cc\)J	.
4b-\	.	4dd\|	.	4BB-/	.	4B-/	.	(8dd\L	.
.	.	.	.	.	.	.	.	8b-\J)	.
=26	=26	=26	=26	=26	=26	=26	=26	=26	=26
4f/	.	4cc'\	.	4FF/	.	8F/L	.	8cc\L	.
.	.	.	.	.	.	8G/	.	8b-\	.
4r	.	2r	.	4r	.	8A/	.	8cc\	.
.	.	.	.	.	.	8B-/J	.	8dd\J	.
!	!	!	!	!	!	!	!	!LO:TX:a:t=d	!
!	!	!	!	!	!	!	!	!LO:SIC:v:s=4c\	!
4r	.	.	.	4r	.	4A/	.	4b-\	.
!	!	!	!	!	!	!	!	!LO:LB:g=original	!
=27	=27	=27	=27	=27	=27	=27	=27	=27	=27
*	*	*	*	*	*	*tremolo	*	*	*
!	!LO:DY:t=f~	!	!	!	!LO:DY:rj:t=f~	!LO:TX:t=P:problem=oznaczenie forte przed lamaniem linii	!LO:DY:rj:t=f~	!	!LO:DY:rj:t=f~
4r	f	4r	.	4BBB-/	f	8D/L	f	2f/	f
.	.	.	.	.	.	8F/	.	.	.
!	!	!	!LO:DY:rj:t=f~	!	!	!	!	!	!
8d/L	.	8b-\L	f	4BB-/	.	8D/	.	.	.
8d/J	.	8b-\J	.	.	.	8F/	.	.	.
4d/	.	4b-\	.	4BB-/	.	8D/	.	4dd\	.
.	.	.	.	.	.	8F/J	.	.	.
=28	=28	=28	=28	=28	=28	=28	=28	=28	=28
*	*	*	*	*	*	*rep	*	*	*
4r	.	4r	.	4BBB-/	.	8D/L	.	2b-\	.
.	.	.	.	.	.	8F/	.	.	.
8d/L	.	8b-\L	.	4BB-/	.	8D/	.	.	.
8d/J	.	8b-\J	.	.	.	8F/	.	.	.
4d/	.	4b-\	.	4BB-/	.	8D/	.	4ff\	.
.	.	.	.	.	.	8F/J	.	.	.
*	*	*	*	*	*	*Xrep	*	*	*
*	*	*	*	*	*	*Xtremolo	*	*	*
=29	=29	=29	=29	=29	=29	=29	=29	=29	=29
.	.	.	.	.	.	.	.	8qqff/	.
2f/	.	(2cc\	.	4FF/	.	2E-/	.	4ee-\	.
.	.	.	.	4F\	.	.	.	8ee-\L	.
.	.	.	.	.	.	.	.	8cc\J	.
4b-\	.	4dd\)	.	4BB-/	.	4D/	.	4dd\	.
!LO:LB:g=original	!	!	!	!	!	!	!	!	!
=30	=30	=30	=30	=30	=30	=30	=30	=30	=30
.	.	.	.	.	.	.	.	8qqff/	.
2f/	.	(2cc\	.	4FF/	.	2E-/	.	4ee-\	.
.	.	.	.	4F\	.	.	.	8ee-\L	.
.	.	.	.	.	.	.	.	8cc\J	.
4b-\	.	4dd\)	.	4BB-/	.	4D/	.	4dd\	.
!	!	!	!	!LO:LB:g=original	!	!	!	!	!
=31	=31	=31	=31	=31	=31	=31	=31	=31	=31
.	.	.	.	.	.	.	.	8qqff/	.
2r	.	4r	.	4EE-/	.	2G/	.	4ee-\	.
.	.	4r	.	4E-\	.	.	.	(8ee-\L	.
.	.	.	.	.	.	.	.	8cc\	.
4f/	.	4cc\	.	4F\	.	4E-/	.	8cc\	.
.	.	.	.	.	.	.	.	8a\J)	.
=32	=32	=32	=32	=32	=32	=32	=32	=32	=32
4d/	.	4b-\	.	4BB-/	.	4D/	.	4b-\	.
4r	.	4r	.	4BBB-/	.	4r	.	4r	.
4r	.	4r	.	4r	.	4r	.	4r	.
!	!	!LO:LB:g=original	!	!	!	!LO:LB:g=original	!	!LO:LB:g=original	!
=:!|!:33	=:!|!:33	=:!|!:33	=:!|!:33	=:!|!:33	=:!|!:33	=:!|!:33	=:!|!:33	=:!|!:33	=:!|!:33
*>C	*	*>C	*	*>C	*	*>C	*	*>C	*
*k[b-e-]	*	*k[b-e-]	*	*k[b-e-]	*	*k[b-e-]	*	*k[b-e-]	*
!LO:TX:a:t=1.	!	!LO:TX:a:t=1.	!	!LO:TX:t=P:mixedbeam:problem	!	!LO:TX:a:i:t=Trio&colon;	!	!LO:TX:a:i:t=Trio	!
!LO:TX:a:i:t=Trio	!	!LO:TX:a:i:t=Trio	!	!LO:TX:a:i:t=Trio.	!LO:DY:a:rj	!LO:TX:a:t=1.	!	!LO:TX:a:t=1.	!
2.r	.	2.r	.	8BB-/L	p	2.r	.	2.r	.
.	.	.	.	8B-\	.	.	.	.	.
.	.	.	.	8F\	.	.	.	.	.
.	.	.	.	8B-\	.	.	.	.	.
.	.	.	.	8D\	.	.	.	.	.
.	.	.	.	8F\J	.	.	.	.	.
=34	=34	=34	=34	=34	=34	=34	=34	=34	=34
!	!	!	!LO:DY:rj	!	!	!	!	!	!LO:DY:rj
8r	.	8r	p	4BB-/	.	8r	.	8r	p
!	!LO:DY:a	!	!	!	!	!	!	!	!
8d\L	p	8b-\L|	.	.	.	8dd\L|	.	8ff\L|	.
8d\	.	(8b-\	.	4r	.	(8dd\	.	(8ff\	.
8f\	.	8cc\)	.	.	.	8cc\)	.	8ee-\)	.
8f\	.	(8cc\	.	4r	.	(8cc\	.	(8ee-\	.
8b-\J	.	8dd\J)	.	.	.	8b-\J)	.	8dd\J)	.
=35	=35	=35	=35	=35	=35	=35	=35	=35	=35
!LO:TX:a:t=1.	!	!LO:TX:a:t=1.	!	!LO:TX:t=P:problem=mixedbeam	!	!LO:TX:a:t=1.	!	!LO:TX:a:t=1.	!
2.r	.	2.r	.	8FF/L	.	2.r	.	2.r	.
.	.	.	.	8F\	.	.	.	.	.
.	.	.	.	8C\	.	.	.	.	.
.	.	.	.	8F\	.	.	.	.	.
.	.	.	.	8AA\	.	.	.	.	.
.	.	.	.	8C\J	.	.	.	.	.
=36	=36	=36	=36	=36	=36	=36	=36	=36	=36
8r	.	8r	.	4FF/	.	8r	.	8r	.
8f\L	.	8cc\L|	.	.	.	8cc\L|	.	[8ee-\L	.
8f\	.	(8cc\	.	4r	.	(8cc\	.	8ee-\]	.
8b-\	.	8dd\)	.	.	.	8b-\)	.	[8dd\	.
8b-\	.	(8dd\	.	4r	.	(8b-\	.	8dd\]	.
8cc\J	.	8ee-\J)	.	.	.	8a\J)	.	8cc\J	.
!	!	!	!	!LO:LB:g=original	!	!	!	!	!
=37	=37	=37	=37	=37	=37	=37	=37	=37	=37
!	!LO:DY:t=f~	!	!	!	!LO:DY:rj:t=f~	!	!	!	!
4b-\	f	4dd\	.	4BB-/	f	2.f/	.	16dd\LL	.
.	.	.	.	.	.	.	.	16b-\	.
.	.	.	.	.	.	.	.	16a\	.
.	.	.	.	.	.	.	.	16b-\JJ	.
4r	.	4r	.	4B-\	.	.	.	16a\LL	.
.	.	.	.	.	.	.	.	16b-\	.
.	.	.	.	.	.	.	.	16cc\	.
.	.	.	.	.	.	.	.	16dd\JJ	.
4f/	.	4cc\	.	4A\	.	.	.	4ee-\	.
=38	=38	=38	=38	=38	=38	=38	=38	=38	=38
!	!	!	!LO:DY:t=f~	!	!	!	!LO:DY:rj:t=f~	!	!LO:DY:rj
2d/	.	2b-\	f	4BB-/	.	8f/	f	16ee-\LL	f
.	.	.	.	.	.	.	.	16dd\	.
.	.	.	.	.	.	4f/	.	(16cc\	.
.	.	.	.	.	.	.	.	16b-\JJ	.
.	.	.	.	4B-\	.	.	.	16a\LL	.
.	.	.	.	.	.	.	.	16b-\	.
.	.	.	.	.	.	4f/	.	16cc\)	.
.	.	.	.	.	.	.	.	16dd\JJ	.
4f/	.	4cc\	.	4A\	.	.	.	4ee-\	.
.	.	.	.	.	.	8f/	.	.	.
=39	=39	=39	=39	=39	=39	=39	=39	=39	=39
4B-/	.	4b-\	.	4B-\	.	4b-\	.	4dd\	.
4r	.	4r	.	4r	.	4r	.	4r	.
4cc\	.	4cc\	.	4G\	.	4b-\	.	(16ff\LL	.
.	.	.	.	.	.	.	.	16eeX\	.
.	.	.	.	.	.	.	.	16dd\)	.
.	.	.	.	.	.	.	.	16ee\JJ	.
!	!	!	!	!	!	!	!	!LO:LB:g=original	!
=40	=40	=40	=40	=40	=40	=40	=40	=40	=40
4f/	.	4cc\	.	4F\	.	4a\	.	4ff\	.
4r	.	4r	.	4FF/	.	4r	.	4r	.
4r	.	4r	.	4r	.	4r	.	4r	.
!LO:LB:g=original	!	!LO:LB:g=original	!	!	!	!LO:LB:g=original	!	!	!
=41:|!|:	=41:|!|:	=41:|!|:	=41:|!|:	=41:|!|:	=41:|!|:	=41:|!|:	=41:|!|:	=41:|!|:	=41:|!|:
*>D	*	*>D	*	*>D	*	*>D	*	*>D	*
!	!	!	!	!	!	!LO:N:vis=1	!	!LO:N:vis=1	!
8r	.	8r	.	8r	.	[>2.f/	p	[<2.ff\	.
!	!LO:DY:a	!	!	!	!	!	!	!	!
8f\L	p	8cc\L	.	8A\L	.	.	.	.	.
8f\	.	8cc\	.	8A\	.	.	.	.	.
8f\	.	8cc\	.	8A\J	.	.	.	.	.
8b-\	.	8dd\	.	4B-\	.	.	.	.	.
8d\J	.	8b-\J	.	.	.	.	.	.	.
=42	=42	=42	=42	=42	=42	=42	=42	=42	=42
!	!	!	!	!	!	!LO:N:vis=1	!	!LO:N:vis=1	!
8F/L	.	8cc\L	.	8r	.	2.f/_>	.	2.ff\_<	.
8f/	.	8cc\	.	8A\L	.	.	.	.	.
8f/	.	8cc\	.	8A\	.	.	.	.	.
8f/	.	8cc\	.	8A\J	.	.	.	.	.
8b-/	.	8dd\	.	4B-\	.	.	.	.	.
8d/J	.	8b-\J	.	.	.	.	.	.	.
=43	=43	=43	=43	=43	=43	=43	=43	=43	=43
!	!	!	!	!	!	!LO:N:vis=1	!	!LO:N:vis=1	!
8b-/L	.	8dd\L	.	4B-\	.	2.f/_>	.	2.ff\_<	.
(8f/	.	(8cc\	.	.	.	.	.	.	.
8d/	.	8b-\	.	4BB-/	.	.	.	.	.
8f/)	.	8cc\)	.	.	.	.	.	.	.
8b-/	.	8dd\	.	4B-\	.	.	.	.	.
8d/J	.	8b-\J	.	.	.	.	.	.	.
=44	=44	=44	=44	=44	=44	=44	=44	=44	=44
4f/	.	4cc\	.	16A\LL	.	4f/]	.	4ff\]	.
.	.	.	.	16f\	.	.	.	.	.
.	.	.	.	16en\	.	.	.	.	.
!	!	!	!	!LO:TX:t=P:problem=łamanie linii w takcie	!	!	!	!	!
.	.	.	.	16d\JJ	.	.	.	.	.
!	!	!	!	!LO:LB:g=original	!	!	!	!	!
4r	.	4r	.	16c\LL	.	4r	.	4r	.
.	.	.	.	(16B-\	.	.	.	.	.
.	.	.	.	16A\	.	.	.	.	.
.	.	.	.	16G\JJ	.	.	.	.	.
4r	.	4r	.	16F\LL	.	4r	.	4r	.
.	.	.	.	16D\)	.	.	.	.	.
.	.	.	.	16E-X\	.	.	.	.	.
.	.	.	.	16C\JJ	.	.	.	.	.
=45	=45	=45	=45	=45	=45	=45	=45	=45	=45
!LO:TX:a:t=1.	!	!LO:TX:a:t=1.	!	!LO:TX:t=P:problem=mixedbeam	!	!LO:TX:a:t=1&colon;	!	!LO:TX:a:t=1.	!
2.r	.	2.r	.	8BB-/L	.	2.r	.	2.r	.
.	.	.	.	8B-\	.	.	.	.	.
.	.	.	.	8F\	.	.	.	.	.
.	.	.	.	8B-\	.	.	.	.	.
.	.	.	.	8D\	.	.	.	.	.
.	.	.	.	8F\J	.	.	.	.	.
=46	=46	=46	=46	=46	=46	=46	=46	=46	=46
!	!	!	!	!	!	!	!LO:DY:rj:t=p	!	!
8r	.	8r	.	4BB-/	.	8r	p	8r	.
!	!LO:DY:rj:t=p	!	!	!	!	!	!	!	!
8d\L	p	8b-\L|	.	.	.	8dd\L|	.	8ff\L|	p
8d\	.	(8b-\	.	4r	.	(8dd\	.	(8ff\	.
8f\	.	8cc\)	.	.	.	8cc\)	.	8ee-X\)	.
8f\	.	(8cc\	.	4r	.	(8cc\	.	(8ee-\	.
8b-\J	.	8dd\J)	.	.	.	8b-\J)	.	8dd\J)	.
=47	=47	=47	=47	=47	=47	=47	=47	=47	=47
!LO:TX:a:t=1.	!	!LO:TX:a:t=1.	!	!LO:TX:t=P:problem=mixedbeam	!	!LO:TX:a:t=1.	!	!LO:TX:a:t=1.	!
2.r	.	2.r	.	8FF/L	.	2.r	.	2.r	.
.	.	.	.	(8F\	.	.	.	.	.
.	.	.	.	8C\	.	.	.	.	.
.	.	.	.	8F\)	.	.	.	.	.
.	.	.	.	8AA\	.	.	.	.	.
.	.	.	.	8C\J	.	.	.	.	.
=48	=48	=48	=48	=48	=48	=48	=48	=48	=48
8r	.	8r	.	4FF/	.	8r	.	8r	.
8f\L	.	8cc\L|	.	.	.	8cc\L|	.	8ee-\L|	.
8f\	.	(8cc\	.	4r	.	(8cc\	.	(8ee-\	.
8b-\	.	8dd\)	.	.	.	8b-\)	.	8dd\	.
8b-\	.	(8dd\	.	4r	.	(8b-\	.	8dd\)	.
8cc\J	.	8ee-\J)	.	.	.	8a\J)	.	8cc\J	.
!LO:LB:g=original	!	!LO:LB:g=original	!	!	!	!	!	!	!
=49	=49	=49	=49	=49	=49	=49	=49	=49	=49
4b-\	.	4dd\	.	4BB-/	.	2.f/	.	16dd\LL	.
.	.	.	.	.	.	.	.	16b-\	.
.	.	.	.	.	.	.	.	(16a\	.
.	.	.	.	.	.	.	.	16b-\JJ)	.
4r	.	4r	.	4B-\	.	.	.	(16a\LL	.
.	.	.	.	.	.	.	.	16b-\	.
.	.	.	.	.	.	.	.	16cc\)	.
.	.	.	.	.	.	.	.	16dd\JJ	.
!	!	!	!	!	!	!	!	!LO:TX:t=P:problem=brak początku ligatury	!
4f/	.	4cc\	.	4A\	.	.	.	[<4ee-\	.
!	!	!	!	!	!	!	!	!LO:LB:g=original	!
=50	=50	=50	=50	=50	=50	=50	=50	=50	=50
!	!LO:DY:rj	!	!LO:DY:rj:t=f~	!	!	!	!LO:DY:rj:t=ff&colon;	!	!LO:DY:rj:t=f~
2d/	f	[2cc\	f	4BB-/	.	8F/	ff	16ee-\LL]	f
.	.	.	.	.	.	.	.	16dd\	.
.	.	.	.	.	.	4f/	.	16cc\	.
.	.	.	.	.	.	.	.	16b-\JJ	.
.	.	.	.	4B-\	.	.	.	16a\LL	.
.	.	.	.	.	.	.	.	16b-\	.
.	.	.	.	.	.	4f/	.	16cc\	.
.	.	.	.	.	.	.	.	16dd\JJ	.
4f/	.	4cc\]	.	4A\	.	.	.	4ee-\	.
.	.	.	.	.	.	8f/	.	.	.
=51	=51	=51	=51	=51	=51	=51	=51	=51	=51
4d/	.	4b-\	.	4BB-/	.	4b-\	.	16dd\LL	.
.	.	.	.	.	.	.	.	16ee-\	.
.	.	.	.	.	.	.	.	16eeX\	.
.	.	.	.	.	.	.	.	16ff\JJ	.
4b-\	.	4dd\	.	4D\	.	4d/	.	4b-\	.
4f/	.	4cc\	.	4F\	.	4e-/	.	4a\	.
!	!	!	!	!	!	!LO:LB:g=original	!	!	!
=52	=52	=52	=52	=52	=52	=52	=52	=52	=52
4d/	.	4b-\	.	4B-\	.	4d/	.	4b-\	.
4r	.	4r	.	4BB-/	.	4r	.	4r	.
!LO:TX:a:t=Da capo\nMenuetto. D C..	!	!LO:TX:a:i:t=Menuetto. D&colon; C&colon;	!	!LO:TX:a:t=M&colon;\nD&colon;\nC&colon;	!	!LO:TX:a:t=Menue&colon; D C&colon;	!	!LO:TX:a:t=Minuet D&colon;C&colon;	!
4r	.	4r	.	4r	.	4r	.	4r	.
=:|!	=:|!	=:|!	=:|!	=:|!	=:|!	=:|!	=:|!	=:|!	=:|!
*-	*-	*-	*-	*-	*-	*-	*-	*-	*-
!!!system-decoration: [(s1,s2,s3)][(s4,s5)]
!!!RDF**kern: | = vertical stroke
!!!RDF**dynam: p = p:
!!!RDF**dynam: f = f~
!!!RDF**kern: > = above
!!!RDF**kern: < = below
!!!ENC: Anastazja Marusiak
!!!END: 2021-06-18
!!!EED: Andrzej Borzym
!!!EEV: 2021-06-23
!!!YEC: Copyright 2022 Narodowy Instytut Fryderyka Chopina (https://polishscores.org)
!!!YEM: License CC-BY-4.0 (https://creativecommons.org/licenses/by/4.0)
